X:1
T:Title
%%score { ( 1 3 ) | ( 2 4 ) }
L:1/8
Q:1/4=100
M:4/4
K:Eb
V:1 treble nm="Grand Piano"
V:3 treble 
V:2 bass 
V:4 bass 
V:1
 [EG]2 [GB]2 G2 E2 | C[B,D][CE]C C2 B,2 | G2 [GB]2 G2 E2 | F2 F2 [DF]4 | [EG]2 [GB]2 G2 E2 | %5
w: L.~E.~Jones * * *|||||
 C[B,D][CE]C C2 B,2 | [A,CE]3 [CFA] [B,EG]2 [A,DF]2 |[M:3/4] [G,E]6 |[M:1/4] G>A | %9
w: ||||
[M:4/4] [GB]4 [EG]2 z2 | (3[GB][FA][FA] [FA]>[EG] [FA]2 F>G | z4 [Bd]2 z2 | %12
w: |||
 [Ac]>[GB] [GB]>[_G=A] [=GB]2 G>B | [Ge]4 z4 | e>c c>=B c2 d>c | B2 B2 (3[AB][AB][AB] [FA]>[DF] | %16
w: ||||
[M:3/4] E6 |] %17
w: |
V:2
 [E,B,]2 [E,E]2 [E,B,E]2 [E,G,B,]2 | [A,,A,][A,,A,][A,,A,][A,,A,] [E,A,]2 [E,G,]2 | %2
 [E,B,E]2 [E,E]2 [E,B,E]2 [G,B,]2 | [F,B,D]2 [F,=A,E]2 [B,,B,]4 | %4
 [E,B,]2 [E,E]2 [E,B,E]2 [E,G,B,]2 | [A,,A,][A,,A,][A,,A,][A,,A,] [E,A,]2 [E,G,]2 | %6
 A,,3 A,, B,,2 B,,2 |[M:3/4] E,6 |[M:1/4][K:treble] E>F |[M:4/4][K:bass] E,2 E,2 E,E, E,>E, | %10
 (3[B,,B,][B,,B,][B,,B,] [B,,B,]>[B,,B,] [B,,B,]2 D>E | %11
 [B,,B,]2 [B,,B,]2 [B,,B,]B,,[K:treble] (3[B,DA][B,DA][B,DA] | %12
 [E,E]>[E,E] [E,E]>[E,E] [E,E]2[K:treble] E>G | [E,B,]2 E,2 E,2 (3[E,_D] z [E,D] | %14
 [A,CA]>[A,EA] [A,EA]>[A,EA] [A,EA]2 [=A,E_G]>[A,EG] | %15
 [B,EG]2 [B,EG]2[K:bass] (3[B,,B,][B,,B,][B,,B,] [B,,B,]>[B,,A,] | %16
[M:3/4] E,2- [E,-A,]>[E,-A,] [E,G,]2 |] %17
V:3
 x8 | x8 | x8 | x8 | x8 | x8 | x8 |[M:3/4] x6 |[M:1/4] x2 |[M:4/4] E2 E2 B,B, [B,GB]>[B,GB] | x8 | %11
 [FA]4 z B, (3ccc | x8 | z2 B,2 [EGB]2 (3[Ge][Ge][Ge] | x8 | x8 |[M:3/4] z2 C>C B,2 |] %17
V:4
 x8 | x8 | x8 | x8 | x8 | x8 | x8 |[M:3/4] x6 |[M:1/4][K:treble] x2 |[M:4/4][K:bass] x8 | x8 | %11
 x6[K:treble] x2 | x6[K:treble] x2 | x8 | x8 | x4[K:bass] x4 |[M:3/4] G,2 z2 z2 |] %17

